flash-triangle.svg

<svg fill="currentColor" viewBox="0 0 24 24"><path d="M12 2 1 21h22zm-2 13v-5h4l-1.5 3.5h2l-3 5.5v-4z"/></svg>

<svg  viewBox="0 0 24 24" fill="currentColor"><path  d="M12 2L1 21H23L12 2M10 15V10H14L12.5 13.5H14.5L11.5 19V15H10Z"/></svg>
